src/components/class-icon/images/Warlock.svg

<?xml version="1.0" encoding="UTF-8"?>
<svg width="42px" height="100px" viewBox="0 0 42 100" version="1.1" xmlns="http://www.w3.org/2000/svg" xmlns:xlink="http://www.w3.org/1999/xlink">
    <!-- Generator: Sketch 53.2 (72643) - https://sketchapp.com -->
    <title>ClassIcon/Warlock</title>
    <desc>Created with Sketch.</desc>
    <g id="ClassIcon/Warlock" stroke="none" stroke-width="1" fill="none" fill-rule="evenodd">
        <g fill="#00040C" fill-rule="nonzero">
            <path d="M3.81,37.77 C4.1037694,37.6731886 4.40469699,37.5996285 4.71,37.55 C5.43360295,37.4440059 6.12025561,37.1624783 6.71,36.73 C7.09682718,36.4477841 7.32687346,35.9988228 7.33,35.52 C7.33,35.24 7.33,34.96 7.33,34.65 C7.58293681,34.6299548 7.83706319,34.6299548 8.09,34.65 C8.70087918,34.731578 9.32164729,34.6976563 9.92,34.55 C11.0265633,34.2872257 12.0927787,33.8768842 13.09,33.33 C13.4807036,33.1312353 13.8522726,32.8969126 14.2,32.63 C14.92,32.1 15.63,31.56 16.33,31 C16.65,30.74 16.93,30.44 17.23,30.16 C17.331121,30.0962296 17.4383111,30.0426345 17.55,30 C17.55,30.26 17.49,30.45 17.47,30.63 C17.47,31.08 17.57,31.26 18.02,31.24 C18.1887521,31.2436816 18.3561853,31.2095115 18.51,31.14 C19.4467478,30.8041933 20.2972237,30.2645339 21,29.56 C21.6903135,30.2535195 22.5227623,30.7891525 23.44,31.13 C23.5478301,31.1888206 23.6673712,31.2229752 23.79,31.23 C24.27,31.29 24.64,31.23 24.5,30.5 C24.5,30.37 24.5,30.23 24.5,30.07 C24.7798084,30.0961555 25.0313381,30.2515121 25.18,30.49 C26.0621731,31.3674987 27.0380192,32.1454928 28.09,32.81 C29.0950754,33.5193805 30.2147551,34.0504673 31.4,34.38 C32.2539121,34.7051807 33.1795054,34.7949771 34.08,34.64 C34.2162491,34.6248913 34.3537509,34.6248913 34.49,34.64 L34.71,34.64 C34.71,34.83 34.71,35.01 34.71,35.18 C34.6533905,35.9208113 35.0478658,36.6229773 35.71,36.96 C36.4512491,37.2978022 37.2300558,37.5462147 38.03,37.7 L38.25,37.77 C37.8390371,37.8590131 37.4372908,37.9862327 37.05,38.15 C35.2211614,39.0682696 33.4688819,40.1316759 31.81,41.33 C30.53,42.33 29.2766667,43.36 28.05,44.42 C27.6674095,44.7762419 27.3314101,45.1794411 27.05,45.62 C26.9101586,45.9541991 26.5562666,46.1457171 26.2,46.08 C25.0056138,45.9421174 23.8303822,46.4627412 23.13,47.44 C22.9499704,47.6987731 22.6716067,47.8722985 22.36,47.92 C21.85,47.99 21.64,48.4 21.51,48.92 C21.38,49.44 21.2,49.45 20.79,49.32 C20.6792632,49.270823 20.5878647,49.1864551 20.53,49.08 C20.4762555,48.9571375 20.4327737,48.8300368 20.4,48.7 C20.2711508,48.2809331 19.9057488,47.9783959 19.47,47.93 C19.2831483,47.8930808 19.1141106,47.7944754 18.99,47.65 C18.2154394,46.5154707 16.857233,45.9278227 15.5,46.14 C15.4,46.14 15.29,46.08 15.19,46.04 C15.1495822,46.0132609 15.118206,45.9749124 15.1,45.93 C14.37,44.43 12.96,43.58 11.75,42.58 C10.0004627,41.06311 8.06895402,39.769839 6,38.73 C5.9299231,38.6959797 5.86299523,38.655823 5.8,38.61 C5.2334333,38.1503735 4.52943431,37.8934139 3.8,37.88 L3.81,37.77 Z M21,43.27 C20.47,41.94 20,40.68 19.49,39.41 C19.4408685,39.2537717 19.4408685,39.0862283 19.49,38.93 C19.67,38.21 19.86,37.5 20.05,36.75 C18.8452781,36.2905822 17.6086675,35.9195991 16.35,35.64 C16.0659651,35.5451484 15.757571,35.6905342 15.65,35.97 C15.0501471,37.1151522 14.8361947,38.4234185 15.04,39.7 C15.2315856,41.010904 15.8753824,42.2136013 16.86,43.1 C18.9751123,45.0503204 22.1769098,45.2247535 24.4913809,43.5157559 C26.805852,41.8067582 27.5814527,38.6954277 26.34,36.1 C26.11,35.64 26.02,35.58 25.52,35.7 C24.83,35.87 24.15,36.07 23.52,36.27 C22.89,36.47 22.46,36.61 21.93,36.79 C22.08,37.35 22.21,37.86 22.37,38.36 C22.5641072,38.9394565 22.5355892,39.5704168 22.29,40.13 C21.83,41.11 21.45,42.16 21,43.27 Z" id="Shape"></path>
            <path d="M17.26,53.17 L20.78,52.23 C20.9110666,52.1952308 21.0489334,52.1952308 21.18,52.23 L24.78,53.23 C24.66,53.85 24.56,54.45 24.45,55.05 C24.15,56.57 23.85,58.05 23.56,59.6 C23.36,60.6 23.17,61.6 22.98,62.6 C22.9138203,62.9101151 22.8670627,63.2240589 22.84,63.54 C22.79,64.45 22.78,65.36 22.74,66.27 C22.66,67.77 22.56,69.27 22.48,70.76 C22.48,71.47 22.4,72.18 22.38,72.89 C22.31,74.47 22.25,76.04 22.18,77.62 C22.18,78.74 22.07,79.86 22.01,80.98 C21.93,82.43 21.83,83.88 21.75,85.33 C21.75,86.04 21.68,86.75 21.65,87.47 C21.58,89.02 21.52,90.58 21.46,92.14 C21.4,93.31 21.33,94.47 21.28,95.64 C21.21,97.03 21.16,98.43 21.09,99.82 C21.0661291,99.8828737 21.0359764,99.943179 21,100 L21,100 C21,99.86 21,99.72 21,99.58 C20.93,97.88 20.88,96.19 20.81,94.49 C20.74,92.79 20.63,90.86 20.54,89.05 C20.48,87.82 20.42,86.59 20.35,85.37 C20.28,84.15 20.24,82.98 20.17,81.78 C20.09,80.36 19.99,78.94 19.91,77.52 C19.91,76.4 19.85,75.27 19.79,74.15 C19.73,72.87 19.63,71.59 19.55,70.3 C19.55,69.67 19.48,69.03 19.45,68.4 C19.45,67.5 19.45,66.61 19.35,65.71 C19.3197317,64.1577674 19.1490354,62.6114596 18.84,61.09 C18.46,59.46 18.21,57.79 17.89,56.09 C17.73,55.24 17.54,54.39 17.37,53.54 C17.27,53.46 17.27,53.32 17.26,53.17 Z" id="Path"></path>
            <path d="M18.32,25.73 C18.44,25.04 18.55,24.39 18.67,23.73 C18.9,22.49 19.14,21.25 19.37,20.01 C19.6,18.77 19.83,17.54 20.05,16.3 C20.2300114,15.413316 20.3403483,14.5139029 20.38,13.61 C20.38,12.03 20.54,10.46 20.63,8.89 L20.63,8.63 C20.69,7.16 20.76,5.69 20.81,4.22 C20.81,3.01 20.88,1.79 20.92,0.58 L20.92,0 L21,0 C21.0283515,0.0845250873 21.0484454,0.171598685 21.06,0.26 C21.06,1.46 21.12,2.66 21.16,3.86 C21.22,5.52 21.28,7.19 21.36,8.86 C21.36,9.98 21.46,11.1 21.53,12.21 C21.5745599,13.7778197 21.7451094,15.3395184 22.04,16.88 C22.39,18.43 22.61,20.01 22.89,21.57 C23.12,22.8 23.36,24.02 23.59,25.24 C23.59,25.39 23.59,25.54 23.64,25.74 C23.0261699,25.9706247 22.4252889,26.2343447 21.84,26.53 C21.3154183,26.8643707 20.6445817,26.8643707 20.12,26.53 C19.59,26.22 19,26 18.32,25.73 Z" id="Path"></path>
            <path d="M33.16,73.93 L25.82,55.48 L26.13,55.29 L29.32,53.61 C29.72,53.41 29.93,53.5 30.01,53.95 C30.15,54.77 30.27,55.59 30.4,56.4 C30.57,57.45 30.75,58.5 30.92,59.56 L31.4,62.56 C31.57,63.56 31.75,64.64 31.92,65.67 L32.31,68.17 L32.82,71.23 C32.95,72.05 33.09,72.86 33.22,73.68 C33.2249725,73.7499117 33.2249725,73.8200883 33.22,73.89 L33.16,73.93 Z" id="Path"></path>
            <path d="M8.78,73.91 C8.85,73.41 8.92,72.91 9,72.42 C9.17,71.36 9.35,70.31 9.52,69.26 C9.69,68.21 9.84,67.26 10.01,66.26 L10.52,63.11 C10.69,62.11 10.87,61.11 11.04,60.04 L11.52,57.04 C11.68,56.04 11.83,55.04 12,54.04 C12.09,53.55 12.28,53.46 12.71,53.69 L16.21,55.52 L8.86,73.93 L8.78,73.91 Z" id="Path"></path>
            <path d="M32.79,49.36 L34.79,50.95 L38,53.43 C38.1496693,53.55058 38.2637378,53.7095845 38.33,53.89 C39.4433333,56.8633333 40.5266667,59.8333333 41.58,62.8 C41.5839107,62.863273 41.5839107,62.926727 41.58,62.99 C41.31,62.69 41.08,62.45 40.86,62.19 C39.73,60.89 38.61,59.58 37.48,58.27 L34.8,55.2 C33.8,54.06 32.8,52.91 31.8,51.78 C31.6678983,51.6557386 31.6388883,51.4568134 31.73,51.3 C31.92,50.89 32.05,50.45 32.25,50.05 C32.4085421,49.8039857 32.5892981,49.5730197 32.79,49.36 Z" id="Path"></path>
            <path d="M0.4,62.91 C0.79,61.83 1.18,60.75 1.58,59.67 C2.24,57.83 2.94,55.99 3.58,54.13 C3.73365252,53.7201387 4.01386396,53.3698744 4.38,53.13 L8.94,49.56 C9.03,49.49 9.12,49.45 9.2,49.39 C9.74,49.7 9.8,50.31 10.09,50.77 C10.48,51.41 10.21,51.82 9.78,52.29 C8.78,53.38 7.83,54.52 6.85,55.64 C6.14,56.46 5.41,57.27 4.69,58.09 L2.5,60.62 C2.01,61.19 1.5,61.75 1.01,62.32 L0.47,62.94 L0.4,62.91 Z" id="Path"></path>
            <path d="M13.25,29 C12.62,28.87 11.99,28.76 11.36,28.62 C10.25,28.37 9.15,28.09 8.04,27.84 C7.83996513,27.8211874 7.6686657,27.6888197 7.6,27.5 C6.85,25.26 6.1,23.02 5.4,20.73 L13.32,28.85 L13.25,29 Z" id="Path"></path>
            <path d="M36.68,20.72 L35.6,23.9 C35.22,25.03 34.83,26.16 34.47,27.3 C34.4068675,27.5638736 34.1886786,27.7622271 33.92,27.8 C32.44,28.12 30.98,28.49 29.51,28.8 C29.2398901,28.8593656 28.9601099,28.8593656 28.69,28.8 L36.62,20.67 L36.68,20.72 Z" id="Path"></path>
        </g>
    </g>
</svg>

<svg viewBox="0 0 42 100" xmlns="http://www.w3.org/2000/svg"><g fill="#00040C" fill-rule="nonzero"><path d="M3.81 37.77a5.9 5.9 0 0 1 .9-.22 4.48 4.48 0 0 0 2-.82 1.51 1.51 0 0 0 .62-1.21v-.87c.253-.02.507-.02.76 0a4.92 4.92 0 0 0 1.83-.1 12.69 12.69 0 0 0 3.17-1.22 7.14 7.14 0 0 0 1.11-.7c.72-.53 1.43-1.07 2.13-1.63.32-.26.6-.56.9-.84a1.81 1.81 0 0 1 .32-.16c0 .26-.06.45-.08.63 0 .45.1.63.55.61.169.004.336-.03.49-.1A6.72 6.72 0 0 0 21 29.56a6.77 6.77 0 0 0 2.44 1.57.83.83 0 0 0 .35.1c.48.06.85 0 .71-.73v-.43a.9.9 0 0 1 .68.42 17 17 0 0 0 2.91 2.32 10.72 10.72 0 0 0 3.31 1.57 5.1 5.1 0 0 0 2.68.26 1.86 1.86 0 0 1 .41 0h.22v.54a1.84 1.84 0 0 0 1 1.78c.741.338 1.52.586 2.32.74l.22.07a6.75 6.75 0 0 0-1.2.38 38.29 38.29 0 0 0-5.24 3.18c-1.28 1-2.533 2.03-3.76 3.09a6.2 6.2 0 0 0-1 1.2.77.77 0 0 1-.85.46 3.31 3.31 0 0 0-3.07 1.36 1.15 1.15 0 0 1-.77.48c-.51.07-.72.48-.85 1s-.31.53-.72.4a.55.55 0 0 1-.26-.24 2.43 2.43 0 0 1-.13-.38 1.1 1.1 0 0 0-.93-.77.85.85 0 0 1-.48-.28 3.56 3.56 0 0 0-3.49-1.51c-.1 0-.21-.06-.31-.1a.24.24 0 0 1-.09-.11c-.73-1.5-2.14-2.35-3.35-3.35A27.91 27.91 0 0 0 6 38.73a1.32 1.32 0 0 1-.2-.12 3.27 3.27 0 0 0-2-.73l.01-.11zM21 43.27c-.53-1.33-1-2.59-1.51-3.86a.8.8 0 0 1 0-.48c.18-.72.37-1.43.56-2.18a26.53 26.53 0 0 0-3.7-1.11.56.56 0 0 0-.7.33 6 6 0 0 0-.61 3.73 5.68 5.68 0 0 0 1.82 3.4 6 6 0 0 0 9.48-7c-.23-.46-.32-.52-.82-.4-.69.17-1.37.37-2 .57-.63.2-1.06.34-1.59.52.15.56.28 1.07.44 1.57a2.46 2.46 0 0 1-.08 1.77c-.46.98-.84 2.03-1.29 3.14zM17.26 53.17l3.52-.94a.78.78 0 0 1 .4 0l3.6 1c-.12.62-.22 1.22-.33 1.82-.3 1.52-.6 3-.89 4.55-.2 1-.39 2-.58 3a7.62 7.62 0 0 0-.14.94c-.05.91-.06 1.82-.1 2.73-.08 1.5-.18 3-.26 4.49 0 .71-.08 1.42-.1 2.13-.07 1.58-.13 3.15-.2 4.73 0 1.12-.11 2.24-.17 3.36-.08 1.45-.18 2.9-.26 4.35 0 .71-.07 1.42-.1 2.14-.07 1.55-.13 3.11-.19 4.67-.06 1.17-.13 2.33-.18 3.5-.07 1.39-.12 2.79-.19 4.18a1 1 0 0 1-.09.18v-.42c-.07-1.7-.12-3.39-.19-5.09-.07-1.7-.18-3.63-.27-5.44-.06-1.23-.12-2.46-.19-3.68-.07-1.22-.11-2.39-.18-3.59-.08-1.42-.18-2.84-.26-4.26 0-1.12-.06-2.25-.12-3.37-.06-1.28-.16-2.56-.24-3.85 0-.63-.07-1.27-.1-1.9 0-.9 0-1.79-.1-2.69a25.73 25.73 0 0 0-.51-4.62c-.38-1.63-.63-3.3-.95-5-.16-.85-.35-1.7-.52-2.55-.1-.08-.1-.22-.11-.37zM18.32 25.73c.12-.69.23-1.34.35-2 .23-1.24.47-2.48.7-3.72.23-1.24.46-2.47.68-3.71.18-.887.29-1.786.33-2.69 0-1.58.16-3.15.25-4.72v-.26c.06-1.47.13-2.94.18-4.41 0-1.21.07-2.43.11-3.64V0H21c.028.085.048.172.06.26 0 1.2.06 2.4.1 3.6.06 1.66.12 3.33.2 5 0 1.12.1 2.24.17 3.35a29.26 29.26 0 0 0 .51 4.67c.35 1.55.57 3.13.85 4.69.23 1.23.47 2.45.7 3.67 0 .15 0 .3.05.5a18.15 18.15 0 0 0-1.8.79 1.6 1.6 0 0 1-1.72 0c-.53-.31-1.12-.53-1.8-.8zM33.16 73.93l-7.34-18.45.31-.19 3.19-1.68c.4-.2.61-.11.69.34.14.82.26 1.64.39 2.45.17 1.05.35 2.1.52 3.16l.48 3c.17 1 .35 2.08.52 3.11l.39 2.5.51 3.06c.13.82.27 1.63.4 2.45.005.07.005.14 0 .21l-.06.04zM8.78 73.91c.07-.5.14-1 .22-1.49.17-1.06.35-2.11.52-3.16.17-1.05.32-2 .49-3l.51-3.15c.17-1 .35-2 .52-3.07l.48-3c.16-1 .31-2 .48-3 .09-.49.28-.58.71-.35l3.5 1.83-7.35 18.41-.08-.02zM32.79 49.36l2 1.59L38 53.43c.15.12.264.28.33.46a554.408 554.408 0 0 1 3.25 8.91 1.54 1.54 0 0 1 0 .19c-.27-.3-.5-.54-.72-.8-1.13-1.3-2.25-2.61-3.38-3.92L34.8 55.2c-1-1.14-2-2.29-3-3.42a.39.39 0 0 1-.07-.48c.19-.41.32-.85.52-1.25a4.79 4.79 0 0 1 .54-.69zM.4 62.91c.39-1.08.78-2.16 1.18-3.24.66-1.84 1.36-3.68 2-5.54.154-.41.434-.76.8-1l4.56-3.57c.09-.07.18-.11.26-.17.54.31.6.92.89 1.38.39.64.12 1.05-.31 1.52-1 1.09-1.95 2.23-2.93 3.35-.71.82-1.44 1.63-2.16 2.45L2.5 60.62c-.49.57-1 1.13-1.49 1.7l-.54.62-.07-.03zM13.25 29c-.63-.13-1.26-.24-1.89-.38-1.11-.25-2.21-.53-3.32-.78a.52.52 0 0 1-.44-.34c-.75-2.24-1.5-4.48-2.2-6.77l7.92 8.12-.07.15zM36.68 20.72L35.6 23.9c-.38 1.13-.77 2.26-1.13 3.4a.66.66 0 0 1-.55.5c-1.48.32-2.94.69-4.41 1-.27.06-.55.06-.82 0l7.93-8.13.06.05z"/></g></svg>
